X: 37669
T: Snowy Monday
R: jig
M: 6/8
K: Dmajor
|:A|FGA D2F|Add fed|GAB Add|Agf e2A|
FGA D2F|Add fdd|GAB Aae|fdc d2:|
f/g/|afd fed|BGB dcB|AB/A/A def|Aaf e2f/g/|
afd fed|BGB dcB|Add cae|fdc d2f/g/|
afd fed|BGB dcB|AB/A/A def|Aaf e2A|
FGA D2F|Add fdd|GAB Aae|fdc d2||

